X: 1897
T: The Steampacket Hornpipe
B: australian traditional tunes wiki
M:C
L:1/8
R: Hornpipe
Q: 1/4=100
K:G
V:1 
dc|:"G"BGAB "D7"cAEF|"G"GABG"C"E2c2|"G"BGFB "D7"cAEF|"G"GABG"D7"D2dc|
"G"BGAB "D7"cAEF|"G"GABG"C"E2G2|"D7"F2fe dcBA|1"G"G2B2G2dc:|2"G"G2B2G2Bc||
|:"G"dBGB "D7"cBAG|"A7"AGFE "D7"DEFD|"G"G2G2GABc|"G"dBGB"D7"d2d2|
"C"edcB "D7"cBAG| "A7"ABAG "D7"FED2|"C"E2c2"D7"EDEF|1"G"G2B2G2Bc:|2"G"G2B2G4||
% abcbook-tune_id 6342d53a3c1ca46c46be6be0


% abcbook-boost 0
% abcbook-tablature 
% abcbook-transpose 
% abcbook-lastupdated 1665324391412
% abcbook-soundfonts 
% abcbook-repeats 1
% NFF Book 2010

